img/threat.svg

<svg xmlns="http://www.w3.org/2000/svg" viewBox="0 0 250 250"><path d="M82.4 118.2H63.9l24.7-42.9 9.6 16.3-15.8 26.6zm0 13.5l15.5 26.6-9.3 16.3-24.7-42.9h18.5zm58.1-33.4l15.1 26.7-15.1 26.7h-31L94.2 125l15.3-26.7h31zm-31-13.4l-9.3-16.3h49.6l-9.2 16.3h-31.1zm31 80.1l9.2 16.4h-49.6l9.3-16.4h31.1zm2.8-40l-9.1-16h-18.5l-9.1 16 9.1 15.9h18.5l9.1-15.9zm24-6.8l-15.5-26.6 9.6-16.3 24.7 42.9h-18.8zm0 13.5h18.8l-24.7 42.9-9.6-16.3 15.5-26.6z"/></svg>

<?xml version="1.0" encoding="utf-8"?>
<!-- Generator: Adobe Illustrator 21.0.2, SVG Export Plug-In . SVG Version: 6.00 Build 0)  -->
<svg version="1.1" id="Layer_1" xmlns="http://www.w3.org/2000/svg" xmlns:xlink="http://www.w3.org/1999/xlink" x="0px" y="0px"
	 viewBox="0 0 250 250" style="enable-background:new 0 0 250 250;" xml:space="preserve">
<g>
	<path d="M82.4,118.2H63.9l24.7-42.9l9.6,16.3L82.4,118.2z M82.4,131.7l15.5,26.6l-9.3,16.3l-24.7-42.9H82.4z M140.5,98.3l15.1,26.7
		l-15.1,26.7h-31L94.2,125l15.3-26.7H140.5z M109.5,84.9l-9.3-16.3h49.6l-9.2,16.3H109.5z M140.5,165l9.2,16.4h-49.6l9.3-16.4H140.5
		z M143.3,125l-9.1-16h-18.5l-9.1,16l9.1,15.9h18.5L143.3,125z M167.3,118.2l-15.5-26.6l9.6-16.3l24.7,42.9H167.3z M167.3,131.7
		h18.8l-24.7,42.9l-9.6-16.3L167.3,131.7z"/>
</g>
</svg>
